X: 2120
Q: "Strathspey."
M: C
L: 1/16
K: G
uA2 |\
vGGG2 uB3uG vA3vG (EA3) | GGG2 B3G A3GB3G |\
c3AB3G A3GE3e | d3cB3A BG3 G2 ::\
uf2 |\
vg3vfug3uB A3GE3e | g3dg3B g3dg3a |
(bagf) g3B A3GE3e | d3cB3A BG3 G2 ::\
ua2 |\
vggg2 ub3ug va3vg (ea3) | ggg2 b3g a3gb3g |\
a3gb3g a3ge3g |
d3cB3A BG3 G2 ::\
(3(DEF) |\


